assets/camera.svg

<svg width="214" height="215" viewBox="0 0 214 215" fill="none" xmlns="http://www.w3.org/2000/svg">
<rect y="0.723633" width="214" height="214" rx="16" fill="#DFEBF1"/>
<g clip-path="url(#clip0_607_249)">
<path d="M80 95.7236C80 95.7236 80 89.7236 86 89.7236H128C128 89.7236 134 89.7236 134 95.7236V122.724C134 122.724 134 128.724 128 128.724H86C86 128.724 80 128.724 80 122.724V95.7236Z" fill="#31373D"/>
<path d="M111.5 124.224C119.784 124.224 126.5 117.508 126.5 109.224C126.5 100.939 119.784 94.2236 111.5 94.2236C103.216 94.2236 96.5 100.939 96.5 109.224C96.5 117.508 103.216 124.224 111.5 124.224Z" fill="#CCD6DD"/>
<path d="M111.5 121.224C118.127 121.224 123.5 115.851 123.5 109.224C123.5 102.596 118.127 97.2236 111.5 97.2236C104.873 97.2236 99.5 102.596 99.5 109.224C99.5 115.851 104.873 121.224 111.5 121.224Z" fill="#31373D"/>
<path d="M111.5 116.724C115.642 116.724 119 113.366 119 109.224C119 105.081 115.642 101.724 111.5 101.724C107.358 101.724 104 105.081 104 109.224C104 113.366 107.358 116.724 111.5 116.724Z" fill="#3B88C3"/>
<path d="M128.75 97.2236C129.993 97.2236 131 96.2163 131 94.9736C131 93.731 129.993 92.7236 128.75 92.7236C127.507 92.7236 126.5 93.731 126.5 94.9736C126.5 96.2163 127.507 97.2236 128.75 97.2236Z" fill="white"/>
<path d="M104 94.2236L108.5 85.2236L99.5 88.2236L93.5 80.7236L90.5 88.2236L81.5 86.7236L87.5 95.7236L80 101.724H89L86 110.724L95 106.224L104 113.724L102.5 101.724L111.5 100.224L104 94.2236Z" fill="#FFAC33"/>
<path d="M95 101.724L90.5 104.724L92 100.224L87.5 98.7236L92 95.7236L87.5 91.2236H93.5L95 86.7236L98 91.2236L102.5 89.7236L99.5 94.2236L104 98.7236L99.5 100.224L101 106.224L95 101.724Z" fill="white"/>
</g>
<defs>
<clipPath id="clip0_607_249">
<rect width="54" height="54" fill="white" transform="translate(80 80.7236)"/>
</clipPath>
</defs>
</svg>

<svg xmlns="http://www.w3.org/2000/svg" width="214" height="215" fill="none"><rect width="214" height="214" y=".724" fill="#DFEBF1" rx="16"/><g clip-path="url(#a)"><path fill="#31373D" d="M80 95.724s0-6 6-6h42s6 0 6 6v27s0 6-6 6H86s-6 0-6-6v-27Z"/><path fill="#CCD6DD" d="M111.5 124.224c8.284 0 15-6.716 15-15 0-8.285-6.716-15-15-15-8.284 0-15 6.715-15 15 0 8.284 6.716 15 15 15Z"/><path fill="#31373D" d="M111.5 121.224c6.627 0 12-5.373 12-12 0-6.628-5.373-12-12-12s-12 5.372-12 12c0 6.627 5.373 12 12 12Z"/><path fill="#3B88C3" d="M111.5 116.724a7.5 7.5 0 1 0 0-15 7.5 7.5 0 0 0 0 15Z"/><path fill="#fff" d="M128.75 97.224a2.25 2.25 0 1 0 0-4.5 2.25 2.25 0 0 0 0 4.5Z"/><path fill="#FFAC33" d="m104 94.224 4.5-9-9 3-6-7.5-3 7.5-9-1.5 6 9-7.5 6h9l-3 9 9-4.5 9 7.5-1.5-12 9-1.5-7.5-6Z"/><path fill="#fff" d="m95 101.724-4.5 3 1.5-4.5-4.5-1.5 4.5-3-4.5-4.5h6l1.5-4.5 3 4.5 4.5-1.5-3 4.5 4.5 4.5-4.5 1.5 1.5 6-6-4.5Z"/></g><defs><clipPath id="a"><path fill="#fff" d="M80 80.724h54v54H80z"/></clipPath></defs></svg>
